X:1
T:Title
L:1/8
M:4/4
I:linebreak $
K:C
V:1 treble nm="Voice"
V:1
"C" C3 E G2 c2 |: C3 E GE F/E/D | EDCE GcGc | cddB cdcA |1 GECE G2 c2 :|2 GECD EDEG || %6
[K:G]"D" A2 AA"G" GBAG |"D" FADA"C" GECE |"D" AABA"G" GABG |"C" cccA GECE |"D" A3 A"G" GBAG | %11
"D" FD D/E/F"C" GECE |"D" A2 PB2"G" GABG |"C" cccA GFED |] %14
